X:1
T:When I Shall Fall Asleep
T:Charles Hutchinson Gabriel
T:When I Shall Fall Asleep
T:Public Domain
T:Public Domain
T:Public Domain
C:Charles Hutchinson Gabriel
Z:Public Domain
%%score ( 1 2 ) 3
L:1/8
M:3/4
K:F
V:1 treble 
V:2 treble 
V:3 bass 
V:1
 [FA]2 | [F^G][FA] [Fc][FB] F[F=G] | [FA]4 [FB]2 | [FA]3 [EG] C[EG] | [CF]4 _E2 | %5
w: 1.~Some|day the sun of life will|and I|shall fall a- sleep,|leav- ing|
w: 2.~Some|day the cares of life will|and I|shall fall a- sleep,|pass- ing|
w: 3.~Some|day my work will all be|and I|shall fall a- sleep,|O what|
 [DF][B,D] [DF][B,D] [DF][FG] | [FA]4 [FA]2 | [FA][FG] [FG]2 [DF]2 | [EG]4 [EG]2 | %9
w: that I hold dear, will find|the si-|lence deep: That mys-|ter- y|
w: you, I shall see a- far|the gold-|en street, And saint-|ed forms|
w: to know that I shall wake|to ne-|ver weep! For where|I go|
 [Fc]>[Fc] [Fc][Fc] [F=B][FB] | [GB]4 [GB]2 | [GB][G=B] [Gc]3 [EG] | [FB]4 [Fc]2 | %13
w: which, still un- solved, God and|His an-|gels know, And those|who walk|
w: of those who dwell up- on|the o-|ther shore, Be- hold|the loves|
w: we know that God has prom-|ised per-|fect rest And peace|for ev-|
 [Af]3 [Af] [Ae][Ae] | [Ad][Ad] [Ac]3 [Ac] | [GB][GB] [^FA]2 [FA]2 | [FG]4 [FG]2 | %17
w: the crys- tal streams|where heav’n- ly breez-|es blow, Where grief|nor sor-|
w: ones who from us|a- while have gone|be- fore; Where soft|and cool-|
w: ery ach- ing heart,|and ev- ery trou-|bled breast; And love|more last-|
 [Fc]3 [Fc] [Ec][Ec] | [Fc][Fc] [Gc]2 [Ac]2 | [Ff]3 [FB] [Ff][FB] | [FA]4 [FA]2 | %21
w: row ev- er come,|nor trou- ble’s bil-|lows sweep; Some day|the Reap-|
w: ing path- ways lie,|where none shall ev-|er weep— Some day|the hour|
w: ing than our own|He’ll give to me|to keep, When all|my bur-|
 [FG]3 [GB] [^Ge][Gd] | [Ac][FA] [B,F]3 [B,F] | [Fc]3 [FA] C[EG] | [CF]4 |] %25
w: er will ap- pear,|and I shall fall|a- sleep. * *||
w: for me will come,|and I shall fall|a- sleep. * *||
w: dens are laid down,|and I have gone|to sleep. * *||
V:2
 x2 | x4 F x | x6 | x4 C x | x4 _E2 | x6 | x6 | x6 | x6 | x6 | x6 | x6 | x6 | x6 | x6 | x6 | x6 | %17
w: |set,||And,|all|||||||||||||
w: |cease,||And,|from|||||||||||||
w: |done,||But|joy|||||||||||||
 x6 | x6 | x6 | x6 | x6 | x6 | x4 C x | x4 |] %25
w: ||||||||
w: ||||||||
w: ||||||||
V:3
 [F,C]2 | [F,=B,][F,C] [F,_E][F,D] [F,D][F,_D] | [F,C]4 [B,,D]2 | [C,C]3 [C,B,] [C,B,][C,B,] | %4
 [F,A,]4 [F,A,]2 | [B,,B,][B,,F,] [B,,B,][B,,F,] [B,,B,][B,,_D] | [F,,F,C]4 [F,C]2 | %7
 [G,=B,][G,B,] [G,B,]2 [G,B,]2 | [C,C]4 [B,C]2 | [A,C]>[A,C] [A,C][A,C] [^G,D][G,D] | %10
 [G,D]4 [F,_D]2 | [E,C][D,F] [C,E]3 [C,C] | [F,C]4 [F,A,]2 | [D,D]3 [D,D] [E,^C][E,C] | %14
 [F,D][F,D] [^F,_F]3 [_F,E] | [G,D][G,D] [A,D]2 [A,D]2 | [B,D]4 [B,D]2 | %17
 [A,C]3 [A,C] [G,B,][G,B,] | [F,A,][F,A,] [E,C]2 [_E,C]2 | [D,B,]3 [D,B,] [D,B,][D,B,] | %20
 [C,C]4 [C,C]2 | [B,,D]3 [B,,D] [=B,,D][B,,F] | [C,F][C,C] [_D,^G,]3 [D,G,] | %23
 [C,A,]3 [C,C] [C,A,][C,B,] | [F,,A,]4 |] %25

